img/icons/cat-energy-footer.svg

<svg width="128" height="24" viewBox="0 0 128 24" xmlns="http://www.w3.org/2000/svg">
  <g clip-path="url(#clip0_135:3260)">
    <path
      d="M1.60253 22.0513C0.468358 20.3682 -0.0946573 18.3503 3.016e-05 16.3077V7.79487C-0.137317 5.73031 0.390444 3.67661 1.50238 1.94872C2.6041 0.615385 4.30676 0 6.81067 0C9.31458 0 10.9171 0.615385 11.9187 1.74359C13.006 3.17255 13.5409 4.96181 13.421 6.76923V8.82051H8.51333V6.46154C8.55297 5.76385 8.45065 5.06533 8.21286 4.41026C8.08576 4.14583 7.88431 3.9264 7.63443 3.78018C7.38455 3.63395 7.09766 3.56763 6.81067 3.58974C6.10958 3.58974 5.60879 3.79487 5.40848 4.30769C5.18191 5.03643 5.08025 5.79984 5.10801 6.5641V17.5385C5.05512 18.2799 5.19327 19.0227 5.50864 19.6923C5.70895 20.2051 6.20973 20.4103 6.91083 20.4103C7.61192 20.4103 8.01255 20.2051 8.21286 19.6923C8.44058 18.9992 8.54242 18.2692 8.51333 17.5385V15.0769H13.421V17.1282C13.5229 18.9651 12.9911 20.7803 11.9187 22.2564C10.9171 23.4872 9.21443 24.1026 6.81067 24.1026C4.40692 24 2.6041 23.3846 1.60253 22.0513Z"/>
    <path
      d="M19.3302 0.307617H25.0391L29.2457 23.6922H24.6385L23.8372 18.7692H20.5321L19.7308 23.6922H15.0235L19.3302 0.307617ZM23.4366 15.6922L22.2347 6.56403L21.0329 15.6922H23.4366Z"/>
    <path d="M32.7512 4.20505H29.3459V0.307617H41.2645V4.10249H37.8592V23.6922H32.7512V4.20505Z" fill="#111111"/>
    <path d="M50.3787 0.307617H59.1925V2.76916H53.4836V10.4615H58.0908V12.8204H53.4836V21.4358H59.1925V23.7948H50.2786V0.307617H50.3787Z"/>
    <path d="M61.7966 0.307617H64L70.5102 15.7948V0.307617H73.1142V23.6922H71.1111L64.5008 7.69223V23.6922H61.7966V0.307617Z"/>
    <path d="M76.1189 0.307617H84.9327V2.76916H79.2238V10.4615H83.831V12.8204H79.2238V21.4358H84.9327V23.7948H76.1189V0.307617Z"/>
    <path
      d="M87.5368 0.3076H92.144C93.9564 0.179397 95.7575 0.685711 97.2519 1.7435C98.3537 2.66657 98.8544 4.3076 98.8544 6.46145C98.8544 9.4358 97.953 11.282 96.0501 11.8973L99.2551 23.5897H96.1502L93.1455 12.6153H90.6416V23.5897H87.4366V0.3076H87.5368ZM91.9437 10.3589C92.9762 10.446 94.0053 10.1553 94.8482 9.53837C95.4491 9.02555 95.7496 7.99991 95.7496 6.46145C95.7774 5.69719 95.6757 4.93378 95.4491 4.20504C95.2237 3.68211 94.8366 3.24964 94.3474 2.97427C93.6576 2.65236 92.9003 2.51137 92.144 2.56401H90.7418V10.2563H91.9437V10.3589Z"/>
    <path
      d="M102.861 21.9487C101.82 20.1554 101.331 18.0821 101.459 15.9999V8.20507C101.434 6.71875 101.602 5.23567 101.959 3.79481C102.294 2.71811 102.962 1.78218 103.862 1.12815C104.981 0.450275 106.271 0.128917 107.568 0.20507C109.671 0.20507 111.174 0.71789 112.075 1.8461C113.112 3.33582 113.608 5.14977 113.477 6.9743V7.79481H110.473V7.07687C110.477 6.21789 110.41 5.36008 110.272 4.51276C110.188 3.97732 109.9 3.49792 109.471 3.17943C108.908 2.80104 108.24 2.62099 107.568 2.66661C106.85 2.61949 106.139 2.83785 105.565 3.28199C105.329 3.48529 105.137 3.73569 104.999 4.01787C104.861 4.30004 104.781 4.60805 104.764 4.92302C104.632 5.83993 104.565 6.76543 104.563 7.69225V16.4102C104.49 17.7384 104.694 19.0674 105.164 20.3076C105.565 21.1281 106.366 21.4358 107.568 21.4358C108.043 21.4964 108.524 21.4119 108.952 21.1929C109.38 20.9739 109.734 20.6302 109.972 20.2051C110.501 18.9081 110.741 17.5064 110.673 16.1025V14.4615H107.768V12.1025H113.577V23.6923H111.574L111.274 21.0256C111.011 21.9193 110.465 22.6975 109.72 23.2364C108.976 23.7753 108.078 24.0441 107.167 23.9999C106.34 24.0498 105.513 23.8885 104.761 23.5304C104.01 23.1724 103.357 22.6289 102.861 21.9487Z"/>
    <path d="M119.987 15.4871L115.08 0.410156H118.084L121.59 11.6922L124.995 0.410156H128L123.092 15.4871V23.6922H120.088V15.4871H119.987Z"/>
  </g>
  <defs>
    <clipPath id="clip0_135:3260">
      <rect width="128" height="24" fill="white"/>
    </clipPath>
  </defs>
</svg>

<svg width="128" height="24" xmlns="http://www.w3.org/2000/svg"><g clip-path="url(#clip0_135:3260)"><path d="M1.603 22.051A9.498 9.498 0 010 16.308V7.795a9.63 9.63 0 011.502-5.846C2.604.615 4.307 0 6.811 0s4.106.615 5.108 1.744a7.487 7.487 0 011.502 5.025v2.052H8.513V6.46a5.157 5.157 0 00-.3-2.05 1.463 1.463 0 00-.579-.63 1.415 1.415 0 00-.823-.191c-.701 0-1.202.205-1.403.718a6.774 6.774 0 00-.3 2.256v10.974a4.334 4.334 0 00.4 2.154c.2.513.702.718 1.403.718.7 0 1.102-.205 1.302-.718.228-.693.33-1.423.3-2.154v-2.461h4.908v2.051a7.98 7.98 0 01-1.502 5.128c-1.002 1.231-2.705 1.847-5.108 1.847-2.404-.103-4.207-.718-5.208-2.052zM19.33.308h5.71l4.206 23.384h-4.607l-.802-4.923h-3.305l-.801 4.923h-4.708L19.33.308zm4.107 15.384l-1.202-9.128-1.202 9.128h2.404z"/><path d="M32.751 4.205h-3.405V.308h11.918v3.794H37.86v19.59h-5.108V4.205z" fill="#111"/><path d="M50.379.308h8.814v2.461h-5.71v7.692h4.608v2.36h-4.607v8.615h5.709v2.359h-8.914V.308h.1zm11.418 0H64l6.51 15.487V.308h2.604v23.384h-2.003l-6.61-16v16h-2.704V.308zm14.322 0h8.814v2.461h-5.71v7.692h4.608v2.36h-4.607v8.615h5.709v2.359h-8.814V.308zm11.418 0h4.607a7.873 7.873 0 015.108 1.436c1.102.923 1.602 2.564 1.602 4.717 0 2.975-.901 4.821-2.804 5.436l3.205 11.693H96.15l-3.005-10.975h-2.503V23.59h-3.205V.308h.1zm4.407 10.05a4.302 4.302 0 002.904-.82c.601-.512.902-1.538.902-3.077a6.772 6.772 0 00-.3-2.256 2.583 2.583 0 00-1.103-1.23 4.473 4.473 0 00-2.203-.411h-1.402v7.692h1.202v.103zm10.917 11.591a10.566 10.566 0 01-1.402-5.95V8.206c-.025-1.486.143-2.97.5-4.41a5.204 5.204 0 011.903-2.667 6.421 6.421 0 013.706-.923c2.103 0 3.606.513 4.507 1.641a7.982 7.982 0 011.402 5.128v.82h-3.004v-.717a15.503 15.503 0 00-.201-2.564 2.056 2.056 0 00-.801-1.334 3.04 3.04 0 00-1.903-.512 2.955 2.955 0 00-2.003.615 2.349 2.349 0 00-.801 1.641 19.734 19.734 0 00-.201 2.77v8.717a9.527 9.527 0 00.601 3.898c.401.82 1.202 1.128 2.404 1.128a2.38 2.38 0 001.384-.243 2.45 2.45 0 001.02-.988 9.635 9.635 0 00.701-4.102V14.46h-2.905v-2.359h5.809v11.59h-2.003l-.3-2.666a4.18 4.18 0 01-1.554 2.21 4.016 4.016 0 01-2.553.764 4.907 4.907 0 01-2.406-.47 5.037 5.037 0 01-1.9-1.581zm17.126-6.462L115.08.41h3.004l3.506 11.282L124.995.41H128l-4.908 15.077v8.205h-3.004v-8.205h-.101z"/></g><defs><clipPath id="clip0_135:3260"><path fill="#fff" d="M0 0h128v24H0z"/></clipPath></defs></svg>
